X:0034
T:Thro' the Lang Muir.
T:Wandering Willie
M:6/8
L:1/8
Q:3/8=90
I: :: ::
Z:Jack Campin * www.campin.me.uk * 2009
K:EMin
Bee Te2d |ege dBG|Bee Te2d |BAG E3:|
BGG  G>AG|BAG ABd|BAG  G>AG|ABG E3 |
BAG  GAG |BAG ABd|Bee  e2d |BAG E3:|
<end>
<start>
